modules/hawcons-stroke/icons/icon-131-cloud-error.svg

<?xml version="1.0" encoding="UTF-8" standalone="no"?>
<svg width="32px" height="32px" viewBox="0 0 32 32" version="1.1" xmlns="http://www.w3.org/2000/svg" xmlns:xlink="http://www.w3.org/1999/xlink" xmlns:sketch="http://www.bohemiancoding.com/sketch/ns">
    <!-- Generator: Sketch 3.0.3 (7891) - http://www.bohemiancoding.com/sketch -->
    <title>icon 131 cloud error</title>
    <desc>Created with Sketch.</desc>
    <defs></defs>
    <g id="Page-1" stroke="none" stroke-width="1" fill="none" fill-rule="evenodd" sketch:type="MSPage">
        <g id="icon-131-cloud-error" sketch:type="MSArtboardGroup" fill="#929292">
            <path d="M12.3636364,24 L8.00281647,24 C5.79793835,24 4,22.209139 4,20 C4,18.1046097 5.32460991,16.5117359 7.10100919,16.1021544 L7.10100919,16.1021544 C7.03467626,15.7448817 7,15.3764904 7,15 C7,11.6862913 9.68629134,9 13,9 C15.6154416,9 17.8400262,10.6734569 18.6614243,13.0080411 C19.435776,12.3778124 20.4237666,12 21.5,12 C23.8583427,12 25.7929639,13.814166 25.9844379,16.1230721 L25.9844379,16.1230721 C27.7144917,16.5630972 29,18.1320162 29,20 C29,22.2046438 27.207878,24 24.9971835,24 L20.6363636,24 L16.5,17 L12.3636364,24 L12.3636364,24 L12.3636364,24 Z M21.2272727,25 L25.0005601,25 C27.7616745,25 30,22.7558048 30,20 C30,17.9035809 28.7132907,16.1085075 26.8828633,15.3655101 L26.8828633,15.3655101 C26.3600217,12.8722494 24.1486546,11 21.5,11 C20.6371017,11 19.8206159,11.1987158 19.0938083,11.5528817 C17.8911816,9.43144875 15.6127573,8 13,8 C9.13400656,8 6,11.1340066 6,15 C6,15.1381509 6.00400207,15.275367 6.01189661,15.4115388 L6.01189661,15.4115388 C4.23965876,16.1816085 3,17.9491311 3,20 C3,22.7614237 5.23249418,25 7.99943992,25 L11.7727273,25 L10,28 L23,28 L21.2272727,25 L21.2272727,25 L21.2272727,25 Z M16.5,19 L21.25,27 L11.75,27 L16.5,19 L16.5,19 Z M16,21 L16,24 L17,24 L17,21 L16,21 L16,21 Z M16,25 L16,26 L17,26 L17,25 L16,25 L16,25 Z" id="cloud-error" sketch:type="MSShapeGroup"></path>
        </g>
    </g>
</svg>

<svg width="32" height="32" viewBox="0 0 32 32" xmlns="http://www.w3.org/2000/svg"><path d="M12.364 24H8.003A4.005 4.005 0 0 1 4 20a4.006 4.006 0 0 1 3.101-3.898 6 6 0 0 1 11.56-3.094 4.5 4.5 0 0 1 7.323 3.115A4.006 4.006 0 0 1 29 20c0 2.205-1.792 4-4.003 4h-4.36L16.5 17l-4.136 7zm8.863 1h3.774C27.76 25 30 22.756 30 20a4.998 4.998 0 0 0-3.117-4.634 5.502 5.502 0 0 0-7.79-3.813 7 7 0 0 0-13.082 3.859A5.006 5.006 0 0 0 3 20c0 2.761 2.232 5 5 5h3.773L10 28h13l-1.773-3zM16.5 19l4.75 8h-9.5l4.75-8zm-.5 2v3h1v-3h-1zm0 4v1h1v-1h-1z" fill="#929292" fill-rule="evenodd"/></svg>
